svg/set/4ED/C.svg

<?xml version="1.0" encoding="UTF-8" standalone="no"?>
<svg xmlns="http://www.w3.org/2000/svg" version="1.1" width="600" height="431.49213">
  <path d="m 246.46806,305.11857 -44.71333,0 0,-98.2183 c 21.70403,47.65826 32.40503,71.13141 44.71333,98.2183 M 373.9307,126.32998 c -9.94588,22.12474 -14.15292,31.47732 -26.20233,58.19744 -12.56719,-26.63382 -16.94684,-35.90011 -27.47523,-58.19744 l 53.67756,0 z M 0,0 l 0,126.41628 52.76064,0 0,178.62678 C 39.94534,305.08616 0,305.16215 0,305.16215 l 0,126.32998 578.80297,0 0,-127.5058 -123.75183,0 C 478.0928,254.60211 527.48781,148.8327 537.92991,126.41671 l 62.07009,0 0,-126.41628 -600,0 z" style="fill:#ffffff"/>
  <path d="m 348.31088,249.49929 67.75499,-150.385648 -138.80009,0 71.0451,150.385648 z M 182.67201,99.19994 l -8.09047,0 0,233.14575 114.19428,0 L 182.67201,99.19994 z m 229.65067,232.0023 139.26395,0 0,73.07312 -524.35951,0 0,-71.92967 52.70671,-0.17259 0,-232.97316 -52.70671,0 0,-71.97282 545.55654,0 0,71.97282 -52.16735,0 -108.29363,232.0023 z"/>
</svg>

<?xml version="1.0" encoding="UTF-8" standalone="no"?>
<svg
   version="1.1"
   width="600"
   height="431.49213"
   id="svg2"
   xmlns="http://www.w3.org/2000/svg"
   xmlns:svg="http://www.w3.org/2000/svg">
  <defs
     id="defs2" />
  <path
     d="m 246.46806,305.11857 h -44.71333 v -98.2183 c 21.70403,47.65826 32.40503,71.13141 44.71333,98.2183 M 373.9307,126.32998 c -9.94588,22.12474 -14.15292,31.47732 -26.20233,58.19744 -12.56719,-26.63382 -16.94684,-35.90011 -27.47523,-58.19744 z M 0,0 V 126.41628 H 52.76064 V 305.04306 C 39.94534,305.08616 0,305.16215 0,305.16215 V 431.49213 H 578.80297 V 303.98633 H 455.05114 C 478.0928,254.60211 527.48781,148.8327 537.92991,126.41671 H 600 V 4.3e-4 H 0 Z"
     style="fill:#ffffff"
     id="path1" />
  <path
     d="M 348.31088,249.49929 416.06587,99.113642 H 277.26578 Z M 182.67201,99.19994 h -8.09047 v 233.14575 h 114.19428 z m 229.65067,232.0023 h 139.26395 v 73.07312 H 27.22712 V 332.34569 L 79.93383,332.1731 V 99.19994 H 27.22712 V 27.22712 h 545.55654 v 71.97282 h -52.16735 z"
     id="path2" />
</svg>
